X:1
T:Kimer, I klokker
T:Kimer, I klokker
T:sats: Joachim Neander, 1680 
C:sats: Joachim Neander, 1680
%%score [ 1 2 3 4 ]
L:1/8
M:3/4
K:F
V:1 treble nm="Soprano" snm="S."
V:2 treble nm="Alto" snm="A."
V:3 treble-8 nm="Tenor" snm="T."
V:4 bass nm="Bass" snm="B."
V:1
 F2 F2 c2 | A3 G F2 | E2 D2 C2 | D2 E2 F2 | G6 | F6 | F2 F2 c2 | A3 G F2 | E2 D2 C2 | D2 E2 F2 | %10
w: Kim- er, I|klok- ker, ja|kim- er før|dag i det|dunk-|le.|Tind- rer, I|stjer- ner som|eng- len- es|øy- ne kan|
w: Jul- en er|kom- met med|sol- hverv for|hjert- en- e|ban-|ge.|Jul, med Guds-|barn- et i|svøp und- er|eng- le- nes|
w: Syng- er og|dans- er og|klap- per i|Ed- ers små|hend-|er.|Men- ne- ske-|barn- en- e|al- le til|jord- e- riks|
 G6 | F6 | c2 c2 c2 | d6 | A2 B2 c2 | c2 B2 A2 | G6 | C2 D2 E2 | F2 G2 A2 | G6 | F6 |] %21
w: funk-|le.|Fred kom til|jord.|Him- mel- ens|fred med Guds|ord,|ær- en er|Guds i det|høy-|e.|
w: sang-|e.|Kom- mer fra|Gud,|bring- er oss|gled- skap- ens|bud.|Ær- en er|Guds i det|høy-|e.|
w: end-|er.|Født er i|dag|barn- et til|Guds vel- be-|hag.|Ær- en er|Guds i det|høy-|e.|
V:2
 C2 D2 C2 | F3 E D2 | C2 B,2 A,2 | B,2 B,2 A,2 | D2 C2 B,2 | A,6 | C2 D2 C2 | F3 E D2 | %8
 C2 B,2 A,2 | B,2 B,2 A,2 | D2 C2 B,2 | A,6 | F2 G2 F2 | F6 | F2 F2 G2 | F2 DE F2 | E6 | %17
 C2 B,2 B,2 | A,2 D2 ^C2 | D4 CB, | A,6 |] %21
V:3
 A2 A2 c2 | c3 c A2 | A2 F2 F2 | F2 G2 F2 | F2 E4 | F6 | A2 A2 G2 | c3 c A2 | A2 F2 F2 | F2 G2 F2 | %10
w: Kim- er, I|klok- ker, ja|kim- er før|dag i det|dunk- *|le.|Tind- rer, I|stjer- ner som|eng- len- es|øy- ne kan|
w: Jul- en er|kom- met med|sol- hverv for|hjert- en- e|ban- *|ge.|Jul, med Guds-|barn- et i|svøp und- er|eng- le- nes|
w: syng- er og|dans- er og|klap- per i|Ed- ers små|hend- *|er.|Men- ne- ske-|barn- en- e|al- le til|jord- e- riks|
 F2 E4 | F6 | A2 G2 A2 | B6 | c2 B2 G2 | A2 B2 c2 | c6 | c2 F2 G2 | F2 D2 E2 | D2 GF E2 | F6 |] %21
w: funk- *|le.|Fred kom til|jord.|Him- mel- ens|fred med Guds|ord.|ær- en er|Guds i det|høy- * * *|e.|
w: sang- *|e.|Kom- mer fra|Gud.|bring- er oss|gled- skap- ens|bud.|Ær- en er|Guds i det|høy- * * *|e.|
w: end- *|er.|født er i|dag|barn- et til|Guds vel- be-|hag.|Ær- en er|Guds i det|høy- * * *|e.|
V:4
 F,2 D,2 E,2 | F,3 C, D,2 | A,,2 B,,2 F,,2 | B,,2 G,,2 D,2 | B,,2 C,4 | F,,6 | F,2 D,2 E,2 | %7
 F,3 C, D,2 | A,,2 B,,2 F,,2 | B,,2 G,,2 D,2 | B,,2 C,4 | F,,6 | F,2 E,2 F,2 | B,,6 | F,2 D,2 E,2 | %15
 F,2 G,2 A,F, | C,6 | A,,2 B,,2 G,,2 | D,2 B,,2 A,,2 | B,,4 C,2 | F,,6 |] %21

